X: 15
T: New Custom House, The
C: Paddy Kelly
Z: RobSheldrick
S: https://thesession.org/tunes/175#setting51794
R: reel
M: 4/4
L: 1/8
K: Ddor
ADFD (3EFG AB|cAGE CDEG|ADFD (3EFG AB|c3 d {e} dcAG|
ADFD (3EFG Ad|cAGE CDEG|ADFD (3EFG Ad|cAGc ADDG||
[AD]ddd Adfd|eA (3Bcd edgd|Addd Adfd|ceag efdc|
Addc d3f|eA (3Bcd egga-|afge fede|ceag efdc||

%-------------------- TUNE SEPARATOR --------------------%

